/* XPM */
static char *ATHENA[] = {
/* columns rows colors chars-per-pixel */
"128 128 58 1 ",
"  c #C357EC",
". c #C45AEC",
"X c #C662ED",
"o c #C965ED",
"O c #CA6BEE",
"+ c #CD74EF",
"@ c #CF78EF",
"# c #D077EF",
"$ c #D17BEF",
"% c #CD76F0",
"& c #CF7CF0",
"* c #D17EF0",
"= c #D383F1",
"- c #D58BF2",
"; c #D88DF1",
": c #D692F3",
"> c #DA95F2",
", c #DB9CF4",
"< c #DDA3F5",
"1 c #DFAAF6",
"2 c #E0A4F4",
"3 c #E3ACF5",
"4 c #E4B4F6",
"5 c #E5B8F7",
"6 c #E9BBF7",
"7 c #E6BDF8",
"8 c #EBC2F7",
"9 c #E7C1F9",
"0 c #E9C5F9",
"q c #ECC7F8",
"w c #EAC9F9",
"e c #EBCBFA",
"r c #EDCAF9",
"t c #ECCFFA",
"y c #EDD2FA",
"u c #EFD7FB",
"i c #EFD8FB",
"p c #F1D2F9",
"a c #F2D5FA",
"s c #F1DBFB",
"d c #F2DEFB",
"f c #F5DEFB",
"g c #F6E3FB",
"h c #F7E4FB",
"j c #F3E3FC",
"k c #F6E3FC",
"l c #F4E4FC",
"z c #F8E7FC",
"x c #F6EAFD",
"c c #F7ECFD",
"v c #F9EAFC",
"b c #FAEDFC",
"n c #F9F1FE",
"m c #FCF3FD",
"M c #FBF6FE",
"N c #FCF6FE",
"B c #FDF9FE",
"V c #FFFFFF",
/* pixels */
"................................................................................................................................",
"................................................................................................................................",
"................................................................................................................................",
"................................................................................................................................",
"................................................................................................................................",
"................................................................................................................................",
"................................................................................................................................",
"................................................................................................................................",
"................................................................................................................................",
"................................................................................................................................",
"................................................................................................................................",
"................................................................................................................................",
"................................................................................................................................",
"................................................................................................................................",
"................................................................................................................................",
"................................................................................................................................",
"................................................................................................................................",
"................................................................................................................................",
"................................................................................................................................",
"................................................................................................................................",
"................................................................................................................................",
"................................................................................................................................",
"................................................................................................................................",
"................................................................................................................................",
"................................................................................................................................",
"................................................................................................................................",
"................................................................................................................................",
"................................................................................................................................",
"................................................................................................................................",
"................................................................................................................................",
"................................................................................................................................",
"................................................................................................................................",
"............................................................         ...........................................................",
"...........................................................O********+...........................................................",
"..........................................................XtBNNNNNNBpX..........................................................",
"......................................................... =MVVVVVVVVB= .........................................................",
"..........................................................4VVVVVVVVVV6..........................................................",
".........................................................OlVVVVVVVVVVzO.........................................................",
"........................................................ :VVVVVVVVVVVV, ........................................................",
".........................................................wVVVVVVVVVVVVt.........................................................",
"....................................................... %nVVVVVMnVVVVVm$ .......................................................",
"....................................................... 1VVVVVV84VVVVVV3........................................................",
".......................................................osVVVVVB-&MVVVVVfo.......................................................",
"...................................................... -BVVVVVfo.yVVVVVB; ......................................................",
".......................................................7VVVVVV3. ,VVVVVV8.......................................................",
"......................................................+xVVVVVn$ .+xVVVVVb@ .....................................................",
"..................................................... ,VVVVVVt....7VVVVVV2 .....................................................",
".....................................................XyVVVVVV> .. -BVVVVVaX.....................................................",
".................................................... =MVVVVVlO ...odVVVVVN= ....................................................",
".................................................... 4VVVVVV5..... 1VVVVVV5.....................................................",
"....................................................OjVVVVVN= .... %nVVVVVlO....................................................",
"................................................... :VVVVVVaX.......wVVVVVV> ...................................................",
"....................................................0VVVVVV2....... >VVVVVVt....................................................",
".................................................. %nVVVVVb+........OlVVVVVn$ ..................................................",
".................................................. 1VVVVVV8..........4VVVVVV3...................................................",
"..................................................osVVVVVB; ........ =MVVVVVfo..................................................",
"................................................. -BVVVVVfo..........XuVVVVVB; .................................................",
"..................................................7VVVVVV3........... 1VVVVVV8..................................................",
".................................................OxVVVVVn$ .......... %bVVVVVv+ ................................................",
"................................................ ,VVVVVVt..............0VVVVVV< ................................................",
"................................................XyVVVVVV> ............ :VVVVVVaX................................................",
"............................................... &MVVVVVzO..............OjVVVVVN= ...............................................",
"............................................... 4VVVVVV5............... 4VVVVVV5................................................",
"...............................................OjVVVVVN= .............. &MVVVVVhO...............................................",
".............................................. :VVVVVVaX................XyVVVVVV> ..............................................",
"...............................................0VVVVVV< ................ ,VVVVVVr...............................................",
"............................................. %bVVVVVN= ................ =nVVVVVn$ .............................................",
"............................................. 1VVVVVVVk,o ............ X,kVVVVVVV3..............................................",
".............................................XiVVVVVVVVVa-. ........ .=yVVVVVVVVVfo.............................................",
"............................................ =BVVVVVVVVVVB0*. ......%7MVVVVVVVVVVB- ............................................",
".............................................5VVVVVVVVVVVVVb4O .. O1bVVVVVVVVVVVVV6.............................................",
"............................................OxVVVVVVVVVVVVVVVk,oX>dVVVVVVVVVVVVVVVv+............................................",
"........................................... ,VVVVVVVVVVVVVVVVVVayBVVVVVVVVVVVVVVVVV, ...........................................",
"............................................tVVVVVV50BVVVVVVVVVVVVVVVVVVVVBq4VVVVVVpX...........................................",
".......................................... &nVVVVVvO.-aVVVVVVVVVVVVVVVVVVs>.OlVVVVVN= ..........................................",
".......................................... 3VVVVVV6.. o<lVVVVVVVVVVVVVVv2O . 4VVVVVV4...........................................",
"..........................................OdVVVVVB= ... +4nVVVVVVVVVVn5+.... =MVVVVVgO..........................................",
"......................................... -BVVVVVaX.......&0BVVVVVVBr=.......XuVVVVVV> .........................................",
"..........................................0VVVVVV2 ....... .-uVVVVs>X ....... ,VVVVVVr..........................................",
"........................................ %cVVVVVb@.......... o,kx2O ..........+xVVVVVn# ........................................",
"........................................ <VVVVVV8............. O+..............7VVVVVV2.........................................",
"........................................XuVVVVVB; .............. ............. -BVVVVVso........................................",
"....................................... =MVVVVVfo..............................osVVVVVB- .......................................",
"........................................5VVVVVV3............................... 1VVVVVV6........................................",
".......................................OlVVVVVn$ .............................. %nVVVVVv+ ......................................",
"...................................... ,VVVVVVr..................................0VVVVVV, ......................................",
".......................................wVVVVVV> ................................ :VVVVVVpX......................................",
"..................................... %nVVVVVlO..................................OjVVVVVN* .....................................",
"..................................... 1VVVVVV5................................... 4VVVVVV4......................................",
".....................................odVVVVVN= .................................. &MVVVVVgO.....................................",
".................................... -BVVVVVpX....................................XtVVVVVB> ....................................",
".....................................9VVVVVV, .................................... ,VVVVVVq.....................................",
"....................................+cVVVVVv+ .................................... OxVVVVVn# ...................................",
"................................... ,nnnnnM6........................................4Mnnnnn, ...................................",
"....................................O@@@@@@o........................................o@@@@@@O....................................",
"..................................... .    ..............................................  .....................................",
"................................................................................................................................",
"................................................................................................................................",
"................................................................................................................................",
"................................................................................................................................",
"................................................................................................................................",
"................................................................................................................................",
"................................................................................................................................",
"................................................................................................................................",
"................................................................................................................................",
"................................................................................................................................",
"................................................................................................................................",
"................................................................................................................................",
"................................................................................................................................",
"................................................................................................................................",
"................................................................................................................................",
"................................................................................................................................",
"................................................................................................................................",
"................................................................................................................................",
"................................................................................................................................",
"................................................................................................................................",
"................................................................................................................................",
"................................................................................................................................",
"................................................................................................................................",
"................................................................................................................................",
"................................................................................................................................",
"................................................................................................................................",
"................................................................................................................................",
"................................................................................................................................",
"................................................................................................................................",
"................................................................................................................................",
"................................................................................................................................",
"................................................................................................................................"
};
